flaticon/stationery/paint-brush-2.svg

<svg xmlns="http://www.w3.org/2000/svg" width="32" height="32" viewBox="0 0 24 24">
    <path d="M 14.675781 4.96875 C 13.308594 6.46875 12.242188 8.117188 10.324219 11.136719 C 9.746094 12.054688 9.082031 13.101562 8.304688 14.304688 L 6.136719 16.644531 C 3.949219 16.644531 2.667969 18.628906 2.789062 20.46875 C 2.9375 22.691406 0 23.777344 0 23.777344 C 0 23.777344 2.003906 24 2.640625 24 C 3.957031 24 5.722656 23.792969 6.636719 22.808594 C 7.390625 21.996094 7.859375 20.953125 7.988281 19.839844 L 10.734375 16.878906 C 11.847656 16.046875 12.816406 15.332031 13.667969 14.707031 C 16.472656 12.640625 18.019531 11.503906 19.398438 10.015625 C 23.609375 5.480469 24 0 24 0 C 24 0 18.839844 0.382812 14.675781 4.96875 Z M 5.941406 22.097656 C 5.4375 22.640625 4.351562 22.953125 2.871094 22.980469 C 3.363281 22.398438 3.855469 21.53125 3.757812 20.398438 C 3.6875 19.535156 4.152344 17.925781 5.90625 17.667969 L 7.046875 18.894531 C 7.125 20.089844 6.726562 21.25 5.941406 22.097656 Z M 7.957031 18.417969 L 6.898438 17.277344 L 8.683594 15.355469 L 9.742188 16.492188 Z M 18.703125 9.308594 C 17.386719 10.726562 15.867188 11.847656 13.109375 13.875 C 12.335938 14.445312 11.464844 15.085938 10.472656 15.824219 L 9.308594 14.566406 C 10 13.488281 10.601562 12.542969 11.132812 11.699219 C 13.015625 8.730469 14.054688 7.09375 15.371094 5.675781 C 17.425781 3.460938 19.980469 1.953125 22.792969 1.277344 C 22.167969 4.324219 20.761719 7.089844 18.703125 9.308594 Z M 18.703125 9.308594"/>
</svg>

<svg xmlns="http://www.w3.org/2000/svg" width="32" height="32" viewBox="0 0 24 24">
    <path d="M14.676 4.969c-1.367 1.5-2.434 3.148-4.352 6.168-.578.918-1.242 1.965-2.02 3.168l-2.167 2.34c-2.188 0-3.469 1.984-3.348 3.824C2.937 22.69 0 23.777 0 23.777S2.004 24 2.64 24c1.317 0 3.083-.207 3.997-1.191a5.245 5.245 0 0 0 1.351-2.97l2.746-2.96a414.476 414.476 0 0 1 2.934-2.172c2.805-2.066 4.352-3.203 5.73-4.691C23.61 5.48 24 0 24 0s-5.16.383-9.324 4.969zM5.94 22.098c-.503.543-1.59.855-3.07.882.492-.582.984-1.449.887-2.582-.07-.863.394-2.472 2.148-2.73l1.14 1.227c.079 1.195-.32 2.355-1.105 3.203zm2.016-3.68l-1.059-1.14 1.786-1.923 1.058 1.137zm10.746-9.11c-1.316 1.419-2.836 2.54-5.594 4.567-.773.57-1.644 1.21-2.636 1.95l-1.164-1.259a411.76 411.76 0 0 0 1.824-2.867c1.883-2.969 2.922-4.605 4.238-6.023 2.055-2.215 4.61-3.723 7.422-4.399-.625 3.047-2.031 5.813-4.09 8.032zm0 0"/>
</svg>
